X:0689
M:C
L:1/8
Q:1/2=72
K:D
e>f|g2g2 f2 f2 |e>dc>B A2 g2 |fagf egfe|d2 d>d d2:|
f2 |e2a2 c'ba^g|a2 a>a a2 e>f|g2g2 f2f2|e>dc>B A2
ag |f2d2 a4    |A>Bc>d ef g2 |fagf egfe|d2 d>d d2:|

